src/pages/Main/ui/Program/ScheduleItem/images/dinner.svg

<svg fill="none" height="30" viewBox="0 0 16 30" width="16" xmlns="http://www.w3.org/2000/svg"><g fill="#fff"><path d="m1.98871 29.3597c-.31469 0-.61658-.1191-.85023-.3353-.283746-.2627-.439026-.64-.426034-1.0351l.362114-11.1545c.00082-.0284-.01671-.0546-.04372-.0654-.389744-.1571-.874142-.526-.9690008-1.392-.0802174-.733-.1156862-3.88.1055818-7.033.126409-1.80086.314064-3.32612.558222-4.5337.304787-1.50734.682777-2.4737 1.156037-2.953862.22746-.231226.48089-.351214.7533-.356838h.00289.00289c.1926.000833.5708.098323.62318.461619.04021.277051.08805 11.540881.10187 14.986581.00082.2204-.09692.4335-.26829.5843-.053.0467-.1097.09-.16827.1285-.01959.013-.03093.0346-.03011.0577l.36583 11.2708c.01278.3953-.1425.7726-.42625 1.0351-.23364.2162-.53554.3351-.85022.3351zm.65122-28.488697c-.15363.004583-.30066.080409-.44955.231437-.41593.42204-.77206 1.35548-1.05891 2.7743-.241268 1.19341-.427067 2.7043-.552445 4.49078-.219825 3.13388-.185799 6.25038-.106613 6.97348.060421.553.305197.9199.727108 1.0899.18044.0727.29303.2354.28726.4147l-.36191 11.1545c-.00969.2956.10332.5749.30974.7659.15528.1438.35201.2229.5543.2229.2023 0 .39903-.0791.55431-.2229.20642-.191.31942-.4703.30973-.7659l-.36582-11.2707c-.00475-.1454.0697-.2829.19899-.3679.04269-.0281.08414-.0598.12311-.094.09218-.0812.14477-.197.14435-.3181-.0268-6.70863-.06867-14.64136-.09857-14.94133-.01876-.122485-.17569-.135817-.21508-.137067z"/><path d="m11.6972.750836c-.1757 1.864594-.3376 3.733784-.4051 5.605674-.0263.73242-.0573 1.47964.0213 2.21039.0109.10145.0235.20415.0522.30247.0088.03062.0179.06458.0327.09374.0087.01729.0198.03583.0324.04979-.0237-.02625-.048-.11665-.0315-.03875.0175.08312.0616.16624.1035.23956.2066.36121.498.67827.7834.98099.1324.1404.2677.278.4052.4137.0606.0595.1279.1112.1359.2001.0109.1194-.0074.2486-.0109.3681-.0215.72-.0429 1.4401-.0644 2.16-.034 1.1397-.0678 2.2792-.1018 3.4188-.0388 1.3032-.0778 2.6066-.1165 3.9098-.0361 1.211-.0722 2.4219-.1083 3.6328-.0258.8647-.0516 1.7296-.0773 2.5943-.0165.5522-.1071 1.1776.1959 1.6717.2396.3908.6537.6549 1.1288.6279.4681-.0265.8467-.3448 1.0463-.7448.1398-.2801.1607-.5784.1516-.8819-.0182-.6075-.0363-1.2149-.0542-1.8224-.0322-1.0771-.0642-2.1545-.0964-3.2317-.0385-1.2911-.0769-2.5822-.1154-3.8734-.0374-1.249-.0745-2.498-.1118-3.7473-.0283-.9511-.0567-1.9023-.085-2.8532-.0117-.3954-.0441-.796-.0354-1.1916.0029-.1312.0961-.195.1835-.2822.1474-.1469.2918-.2967.4333-.4492.2763-.29805.567-.61135.7493-.97569.0306-.06083.0603-.12561.071-.1931.0121-.07604-.014.03687-.0264.05228.0124-.0152.0204-.03458.0282-.05228.0068-.01542.0118-.03125.0174-.04729.0387-.11415.0513-.24247.0637-.36163.0268-.25789.0342-.51786.0379-.77679.0178-1.25696-.0651-2.51683-.1542-3.77003-.0772-1.08593-.1712-2.17082-.2735-3.254874-.0243-.258724-.4303-.187273-.4062.070201.174 1.846473.3359 3.697743.4027 5.551513.0256.71326.0574 1.44089-.0187 2.15269-.0071.0652-.0151.13061-.0271.19519-.0053.02916-.0313.10228-.0018.01604-.0015.00417-.0081.04333-.0118.04375-.0008 0-.0148.03749-.016.04249.0527-.18519.0319-.04416.0212-.04-.0254.0075-.0291.07541-.0365.09666.0113-.0327 0 0-.0021.00563-.0208.06332-.0497.12248-.0841.17956-.2122.35101-.5036.66097-.7877.95698-.2188.2279-.5669.4633-.5729.8024-.0021.1129.0068.2269.0101.3398.0208.6957.0414 1.3917.0623 2.0875.0332 1.1153.0664 2.2308.0998 3.3461.0385 1.2917.0769 2.5837.1155 3.8754.0363 1.2143.0723 2.4287.1086 3.643.0264.8841.0528 1.7681.079 2.6522.0072.2431.0145.4862.0217.7293.0059.2035.0194.4083-.0398.607-.1126.3796-.4378.7358-.8733.7014-.4265-.0335-.7146-.4172-.7882-.8037-.0316-.1649-.0202-.3291-.0153-.4953.0192-.6439.0384-1.2878.0576-1.9317.0323-1.0868.0647-2.1735.0971-3.2601.0384-1.2865.0767-2.5728.1151-3.8594.0367-1.2284.0732-2.4566.1099-3.685.0276-.9268.0552-1.8538.0829-2.7806.0113-.377.0324-.7553.0338-1.1328.0014-.3857-.3914-.647-.6374-.90799-.2677-.28393-.5609-.5839-.7453-.92886-.0307-.05749-.0536-.11894-.062-.1479-.0093-.03208-.0194-.08062-.0479-.10499-.0043-.00375.0419.06124.0252.03708-.0033-.00479-.0046-.01104-.007-.01625-.0207-.04208.0125.06083.0062.01958-.0165-.10603-.0413-.20935-.0522-.31684-.0107-.10499-.0178-.21039-.0233-.3158-.0008-.01687-.0017-.03396-.0025-.05083-.0025-.05145.0008.02437-.0002-.00521-.0014-.03812-.0029-.07624-.0039-.11436-.0025-.08145-.0041-.1629-.0052-.24435-.0165-1.24737.0662-2.49724.1551-3.74065.0767-1.0726.1697-2.14416.2705-3.214882.0244-.25914-.3862-.296844-.4107-.038121z"/><path d="m12.8631.745623v5.659207c0 .05541.0101.10603.0481.14957.0321.03708.0874.06791.1377.07041.0541.00271.112-.01.1528-.04708.0374-.03375.072-.08312.072-.13499v-5.658996c0-.055411-.0101-.106031-.048-.149568-.0322-.03708-.0875-.06791-.1378-.07041-.054-.002708-.112.009999-.1528.047079-.0373.033746-.072.083116-.072.134986z"/><path d="m13.9675.745623v5.659207c0 .05541.0101.10603.048.14957.0322.03708.0874.06791.1378.07041.054.00271.1119-.01.1528-.04708.0373-.03375.0719-.08312.0719-.13499v-5.658996c0-.055411-.0101-.106031-.048-.149568-.0322-.03708-.0875-.06791-.1378-.07041-.054-.002708-.1119.009999-.1528.047079-.0373.033746-.0719.083116-.0719.134986z"/></g></svg>

<svg width="16" height="30" viewBox="0 0 16 30" fill="none" xmlns="http://www.w3.org/2000/svg">
    <path d="M1.98871 29.3597C1.67402 29.3597 1.37213 29.2406 1.13848 29.0244C0.854734 28.7617 0.699454 28.3844 0.712446 27.9893L1.07456 16.8348C1.07538 16.8064 1.05785 16.7802 1.03084 16.7694C0.641096 16.6123 0.156698 16.2434 0.0618392 15.3774C-0.0183782 14.6444 -0.053847 11.4974 0.167421 8.3444C0.29383 6.54354 0.481485 5.01828 0.725643 3.8107C1.03043 2.30336 1.40842 1.337 1.88168 0.856838C2.10914 0.625612 2.36257 0.505624 2.63498 0.5H2.63787H2.64076C2.83336 0.500833 3.21156 0.598323 3.26394 0.961619C3.30415 1.23867 3.35199 12.5025 3.36581 15.9482C3.36663 16.1686 3.26889 16.3817 3.09752 16.5325C3.04452 16.5792 2.98782 16.6225 2.92925 16.661C2.90966 16.674 2.89832 16.6956 2.89914 16.7187L3.26497 27.9895C3.27775 28.3848 3.12247 28.7621 2.83872 29.0246C2.60508 29.2408 2.30318 29.3597 1.9885 29.3597H1.98871ZM2.63993 0.871003C2.4863 0.875586 2.33927 0.951412 2.19038 1.10244C1.77445 1.52448 1.41832 2.45792 1.13147 3.87674C0.890202 5.07015 0.704403 6.58104 0.579025 8.36752C0.3592 11.5014 0.393226 14.6179 0.472412 15.341C0.532833 15.894 0.777609 16.2609 1.19952 16.4309C1.37996 16.5036 1.49255 16.6663 1.48678 16.8456L1.12487 28.0001C1.11518 28.2957 1.22819 28.575 1.43461 28.766C1.58989 28.9098 1.78662 28.9889 1.98891 28.9889C2.19121 28.9889 2.38794 28.9098 2.54322 28.766C2.74964 28.575 2.86264 28.2957 2.85295 28.0001L2.48713 16.7294C2.48238 16.584 2.55683 16.4465 2.68612 16.3615C2.72881 16.3334 2.77026 16.3017 2.80923 16.2675C2.90141 16.1863 2.954 16.0705 2.95358 15.9494C2.92678 9.24077 2.88491 1.30804 2.85501 1.00807C2.83625 0.885585 2.67932 0.872253 2.63993 0.871003Z" fill="white"/>
    <path d="M11.6972 0.750836C11.5215 2.61543 11.3596 4.48462 11.2921 6.35651C11.2658 7.08893 11.2348 7.83615 11.3134 8.5669C11.3243 8.66835 11.3369 8.77105 11.3656 8.86937C11.3744 8.89999 11.3835 8.93395 11.3983 8.96311C11.407 8.9804 11.4181 8.99894 11.4307 9.0129C11.407 8.98665 11.3827 8.89625 11.3992 8.97415C11.4167 9.05727 11.4608 9.14039 11.5027 9.21371C11.7093 9.57492 12.0007 9.89198 12.2861 10.1947C12.4185 10.3351 12.5538 10.4727 12.6913 10.6084C12.7519 10.6679 12.8192 10.7196 12.8272 10.8085C12.8381 10.9279 12.8198 11.0571 12.8163 11.1766C12.7948 11.8966 12.7734 12.6167 12.7519 13.3366C12.7179 14.4763 12.6841 15.6158 12.6501 16.7554C12.6113 18.0586 12.5723 19.362 12.5336 20.6652C12.4975 21.8762 12.4614 23.0871 12.4253 24.298C12.3995 25.1627 12.3737 26.0276 12.348 26.8923C12.3315 27.4445 12.2409 28.0699 12.5439 28.564C12.7835 28.9548 13.1976 29.2189 13.6727 29.1919C14.1408 29.1654 14.5194 28.8471 14.719 28.4471C14.8588 28.167 14.8797 27.8687 14.8706 27.5652C14.8524 26.9577 14.8343 26.3503 14.8164 25.7428C14.7842 24.6657 14.7522 23.5883 14.72 22.5111C14.6815 21.22 14.6431 19.9289 14.6046 18.6377C14.5672 17.3887 14.5301 16.1397 14.4928 14.8904C14.4645 13.9393 14.4361 12.9881 14.4078 12.0372C14.3961 11.6418 14.3637 11.2412 14.3724 10.8456C14.3753 10.7144 14.4685 10.6506 14.5559 10.5634C14.7033 10.4165 14.8477 10.2667 14.9892 10.1142C15.2655 9.81615 15.5562 9.50285 15.7385 9.13851C15.7691 9.07768 15.7988 9.0129 15.8095 8.94541C15.8216 8.86937 15.7955 8.98228 15.7831 8.99769C15.7955 8.98249 15.8035 8.96311 15.8113 8.94541C15.8181 8.92999 15.8231 8.91416 15.8287 8.89812C15.8674 8.78397 15.88 8.65565 15.8924 8.53649C15.9192 8.2786 15.9266 8.01863 15.9303 7.7597C15.9481 6.50274 15.8652 5.24287 15.7761 3.98967C15.6989 2.90374 15.6049 1.81885 15.5026 0.734796C15.4783 0.476072 15.0723 0.547523 15.0964 0.804997C15.2704 2.65147 15.4323 4.50274 15.4991 6.35651C15.5247 7.06977 15.5565 7.7974 15.4804 8.5092C15.4733 8.5744 15.4653 8.63981 15.4533 8.70439C15.448 8.73355 15.422 8.80667 15.4515 8.72043C15.45 8.7246 15.4434 8.76376 15.4397 8.76418C15.4389 8.76418 15.4249 8.80167 15.4237 8.80667C15.4764 8.62148 15.4556 8.76251 15.4449 8.76667C15.4195 8.77417 15.4158 8.84208 15.4084 8.86333C15.4197 8.83063 15.4084 8.86333 15.4063 8.86896C15.3855 8.93228 15.3566 8.99144 15.3222 9.04852C15.11 9.39953 14.8186 9.70949 14.5345 10.0055C14.3157 10.2334 13.9676 10.4688 13.9616 10.8079C13.9595 10.9208 13.9684 11.0348 13.9717 11.1477C13.9925 11.8434 14.0131 12.5394 14.034 13.2352C14.0672 14.3505 14.1004 15.466 14.1338 16.5813C14.1723 17.873 14.2107 19.165 14.2493 20.4567C14.2856 21.671 14.3216 22.8854 14.3579 24.0997C14.3843 24.9838 14.4107 25.8678 14.4369 26.7519C14.4441 26.995 14.4514 27.2381 14.4586 27.4812C14.4645 27.6847 14.478 27.8895 14.4188 28.0882C14.3062 28.4678 13.981 28.824 13.5455 28.7896C13.119 28.7561 12.8309 28.3724 12.7573 27.9859C12.7257 27.821 12.7371 27.6568 12.742 27.4906C12.7612 26.8467 12.7804 26.2028 12.7996 25.5589C12.8319 24.4721 12.8643 23.3854 12.8967 22.2988C12.9351 21.0123 12.9734 19.726 13.0118 18.4394C13.0485 17.211 13.085 15.9828 13.1217 14.7544C13.1493 13.8276 13.1769 12.9006 13.2046 11.9738C13.2159 11.5968 13.237 11.2185 13.2384 10.841C13.2398 10.4553 12.847 10.194 12.601 9.93301C12.3333 9.64908 12.0401 9.34911 11.8557 9.00415C11.825 8.94666 11.8021 8.88521 11.7937 8.85625C11.7844 8.82417 11.7743 8.77563 11.7458 8.75126C11.7415 8.74751 11.7877 8.8125 11.771 8.78834C11.7677 8.78355 11.7664 8.7773 11.764 8.77209C11.7433 8.73001 11.7765 8.83292 11.7702 8.79167C11.7537 8.68564 11.7289 8.58232 11.718 8.47483C11.7073 8.36984 11.7002 8.26444 11.6947 8.15903C11.6939 8.14216 11.693 8.12507 11.6922 8.1082C11.6897 8.05675 11.693 8.13257 11.692 8.10299C11.6906 8.06487 11.6891 8.02675 11.6881 7.98863C11.6856 7.90718 11.684 7.82573 11.6829 7.74428C11.6664 6.49691 11.7491 5.24704 11.838 4.00363C11.9147 2.93103 12.0077 1.85947 12.1085 0.788748C12.1329 0.529608 11.7223 0.491904 11.6978 0.750627L11.6972 0.750836Z" fill="white"/>
    <path d="M12.8631 0.745623V6.40483C12.8631 6.46024 12.8732 6.51086 12.9112 6.5544C12.9433 6.59148 12.9986 6.62231 13.0489 6.62481C13.103 6.62752 13.1609 6.61481 13.2017 6.57773C13.2391 6.54398 13.2737 6.49461 13.2737 6.44274V0.783744C13.2737 0.728333 13.2636 0.677713 13.2257 0.634176C13.1935 0.597096 13.1382 0.566266 13.0879 0.563766C13.0339 0.561058 12.9759 0.573765 12.9351 0.610845C12.8978 0.644591 12.8631 0.693961 12.8631 0.745831V0.745623Z" fill="white"/>
    <path d="M13.9675 0.745623V6.40483C13.9675 6.46024 13.9776 6.51086 14.0155 6.5544C14.0477 6.59148 14.1029 6.62231 14.1533 6.62481C14.2073 6.62752 14.2652 6.61481 14.3061 6.57773C14.3434 6.54398 14.378 6.49461 14.378 6.44274V0.783744C14.378 0.728333 14.3679 0.677713 14.33 0.634176C14.2978 0.597096 14.2425 0.566266 14.1922 0.563766C14.1382 0.561058 14.0803 0.573765 14.0394 0.610845C14.0021 0.644591 13.9675 0.693961 13.9675 0.745831V0.745623Z" fill="white"/>
</svg>
